svgs/light/bezier-curve.svg

<svg xmlns="http://www.w3.org/2000/svg" viewBox="0 0 640 512"><!-- Font Awesome Pro 6.0.0-alpha2 by @fontawesome - https://fontawesome.com License - https://fontawesome.com/license (Commercial License) --><path d="M576 208C611.348 208 640 179.346 640 144C640 108.652 611.348 80 576 80C546.213 80 521.4 100.445 514.264 128H400V112C400 85.49 378.51 64 352 64H288C261.49 64 240 85.49 240 112V128H125.736C118.6 100.445 93.787 80 64 80C28.654 80 0 108.652 0 144C0 179.346 28.654 208 64 208C93.787 208 118.6 187.557 125.736 160H205.215C157.74 188.494 121.602 233.902 105.434 288H80C53.49 288 32 309.49 32 336V400C32 426.51 53.49 448 80 448H144C170.51 448 192 426.51 192 400V336C192 309.49 170.51 288 144 288H139.201C156.605 238.996 193.271 199.162 240.162 177.607C241.029 203.355 262.041 224 288 224H352C377.959 224 398.971 203.355 399.838 177.607C446.729 199.162 483.395 238.996 500.799 288H496C469.49 288 448 309.49 448 336V400C448 426.51 469.49 448 496 448H560C586.51 448 608 426.51 608 400V336C608 309.49 586.51 288 560 288H534.566C518.398 233.902 482.26 188.494 434.785 160H514.264C521.4 187.557 546.213 208 576 208ZM576 112C593.645 112 608 126.355 608 144S593.645 176 576 176S544 161.645 544 144S558.355 112 576 112ZM64 176C46.355 176 32 161.645 32 144S46.355 112 64 112S96 126.355 96 144S81.645 176 64 176ZM144 320C152.822 320 160 327.178 160 336V400C160 408.822 152.822 416 144 416H80C71.178 416 64 408.822 64 400V336C64 327.178 71.178 320 80 320H144ZM368 176C368 184.822 360.822 192 352 192H288C279.178 192 272 184.822 272 176V112C272 103.178 279.178 96 288 96H352C360.822 96 368 103.178 368 112V176ZM560 320C568.822 320 576 327.178 576 336V400C576 408.822 568.822 416 560 416H496C487.178 416 480 408.822 480 400V336C480 327.178 487.178 320 496 320H560Z"/></svg>

<svg xmlns="http://www.w3.org/2000/svg" viewBox="0 0 640 512"><!--! Font Awesome Pro 6.0.0-alpha3 by @fontawesome - https://fontawesome.com License - https://fontawesome.com/license (Commercial License) --><path d="M576 208c35.35 0 64-28.65 64-64c0-35.35-28.65-64-64-64c-29.79 0-54.6 20.45-61.74 48H400V112C400 85.49 378.5 64 352 64H288C261.5 64 240 85.49 240 112V128H125.7C118.6 100.4 93.79 80 64 80c-35.35 0-64 28.65-64 64c0 35.35 28.65 64 64 64c29.79 0 54.6-20.44 61.74-48h79.48c-47.47 28.49-83.61 73.9-99.78 128H80C53.49 288 32 309.5 32 336v64C32 426.5 53.49 448 80 448h64C170.5 448 192 426.5 192 400v-64C192 309.5 170.5 288 144 288H139.2c17.4-49 54.07-88.84 100.1-110.4C241 203.4 262 224 288 224h64c25.96 0 46.97-20.64 47.84-46.39C446.7 199.2 483.4 238.1 500.8 288H496C469.5 288 448 309.5 448 336v64c0 26.51 21.49 48 48 48h64c26.51 0 48-21.49 48-48v-64C608 309.5 586.5 288 560 288h-25.43c-16.17-54.1-52.31-99.51-99.78-128h79.48C521.4 187.6 546.2 208 576 208zM576 112c17.64 0 32 14.36 32 32s-14.36 32-32 32s-32-14.36-32-32S558.4 112 576 112zM64 176c-17.64 0-32-14.36-32-32s14.36-32 32-32s32 14.36 32 32S81.64 176 64 176zM144 320C152.8 320 160 327.2 160 336v64C160 408.8 152.8 416 144 416h-64C71.18 416 64 408.8 64 400v-64C64 327.2 71.18 320 80 320H144zM368 176C368 184.8 360.8 192 352 192H288C279.2 192 272 184.8 272 176v-64C272 103.2 279.2 96 288 96h64c8.822 0 16 7.178 16 16V176zM560 320c8.822 0 16 7.178 16 16v64c0 8.822-7.178 16-16 16h-64c-8.822 0-16-7.178-16-16v-64c0-8.822 7.178-16 16-16H560z"/></svg>
